pro/src/icons/full-down.svg

<svg width="48" height="48" viewBox="0 0 48 48" fill="none" xmlns="http://www.w3.org/2000/svg">
<path id="icon" fill="currentColor" d="M5.66256 16.66C6.54962 15.784 7.99216 15.7794 8.88493 16.6498L23.985 31.3703L39.1196 16.6671L39.1222 16.6647C40.019 15.7983 41.4617 15.809 42.3447 16.689C43.2276 17.5688 43.2169 18.9842 42.3213 19.851L42.3203 19.852L26.9077 34.8251L26.9049 34.8278C25.2934 36.3846 22.6722 36.3998 21.0548 34.8188L21.0539 34.818L5.67293 19.8236C4.77976 18.9529 4.77511 17.5363 5.66256 16.66Z" />
</svg>

<svg xmlns="http://www.w3.org/2000/svg" width="48" height="48" fill="none"><path id="icon" fill="currentColor" d="M5.663 16.66a2.31 2.31 0 0 1 3.222-.01l15.1 14.72L39.12 16.667l.002-.002a2.31 2.31 0 0 1 3.223.024c.883.88.872 2.295-.024 3.162v.001L26.907 34.825l-.003.003c-1.612 1.557-4.233 1.572-5.85-.01h-.001L5.673 19.824a2.207 2.207 0 0 1-.01-3.164"/></svg>
